images/badge.svg

<svg fill="none" height="130" viewBox="0 0 436 130" width="436" xmlns="http://www.w3.org/2000/svg"><rect fill="#000" height="128" rx="5.09111" width="433.898" x="1.55859" y="1.86328"/><g clip-rule="evenodd" fill="#fff" fill-rule="evenodd"><path d="m168.106 102.334h7.293l-15.964-43.9432h-7.385l-15.964 43.9432h7.047l4.076-11.6636h16.853zm-12.717-35.9651h.521l6.404 18.576h-13.359zm39.347 2.2547c-4.535 0-8.457 2.2535-10.479 6.0296h-.491v-5.4814h-6.343v43.9122h6.588v-15.7742h.521c1.747 3.5022 5.516 5.5732 10.265 5.5732 8.427 0 13.789-6.6086 13.789-17.1451s-5.362-17.1143-13.85-17.1143zm-1.872 28.3809c-5.516 0-8.978-4.3242-8.978-11.2369 0-6.9432 3.462-11.2674 9.009-11.2674 5.576 0 8.916 4.2329 8.916 11.2369 0 7.0346-3.34 11.2674-8.947 11.2674zm36.041-28.3809c-4.535 0-8.457 2.2535-10.48 6.0296h-.49v-5.4814h-6.343v43.9122h6.588v-15.7742h.521c1.747 3.5022 5.516 5.5732 10.265 5.5732 8.426 0 13.789-6.6086 13.789-17.1451s-5.363-17.1143-13.85-17.1143zm-1.872 28.3809c-5.516 0-8.978-4.3242-8.978-11.2369 0-6.9432 3.462-11.2674 9.008-11.2674 5.577 0 8.917 4.2329 8.917 11.2369 0 7.0346-3.34 11.2674-8.947 11.2674zm29.665-6.4861c.491 7.8567 7.079 12.8816 16.884 12.8816 10.479 0 17.037-5.2685 17.037-13.6734 0-6.6082-3.739-10.2625-12.809-12.3637l-4.872-1.1876c-5.76-1.34-8.089-3.1366-8.089-6.2732 0-3.9589 3.616-6.5473 9.039-6.5473 5.148 0 8.703 2.5275 9.346 6.5777h6.68c-.398-7.3999-6.956-12.6073-15.934-12.6073-9.652 0-16.087 5.2074-16.087 13.0336 0 6.456 3.647 10.293 11.644 12.1506l5.7 1.3703c5.852 1.3704 8.426 3.3802 8.426 6.73 0 3.8979-4.045 6.73-9.56 6.73-5.914 0-10.02-2.6494-10.602-6.8213zm39.592-29.387v8.1918h-5.485v5.5118h5.485v18.7283c0 6.395 2.91 8.9527 10.234 8.9527 1.287 0 2.482-.152 3.524-.335v-5.4507c-.92.0914-1.441.1523-2.452.1523-3.278 0-4.719-1.5226-4.719-4.9942v-17.0534h7.477v-5.5118h-7.477v-8.1918zm30.4 36.0261c-5.73 0-8.948-4.172-8.948-11.4197 0-7.1867 3.218-11.3892 8.948-11.3892 5.699 0 8.947 4.2025 8.947 11.3892 0 7.2173-3.248 11.4197-8.947 11.4197zm-.004 5.8155c9.744 0 15.719-6.4862 15.719-17.2359 0-10.6888-6.006-17.2057-15.719-17.2057-9.744 0-15.75 6.5169-15.75 17.2057 0 10.7497 5.975 17.2359 15.75 17.2359zm18.725-.639h6.588v-19.5804c0-4.6593 3.524-7.7959 8.488-7.7959 1.103 0 3.125.2132 3.646.3959v-6.4559c-.705-.1827-1.961-.2741-2.911-.2741-4.351 0-8.028 2.3753-8.978 5.6337h-.49v-5.0855h-6.343zm33.553-28.2291c4.872 0 8.059 3.3802 8.212 8.5876h-16.853c.368-5.1769 3.769-8.5876 8.641-8.5876zm8.186 19.2757c-1.226 2.5885-3.953 4.0198-7.936 4.0198-5.271 0-8.672-3.6848-8.886-9.5012v-.3654h23.563v-2.284c0-10.4147-5.607-16.7184-14.892-16.7184-9.407 0-15.382 6.73-15.382 17.3275 0 10.5974 5.853 17.1141 15.413 17.1141 7.63 0 12.961-3.6541 14.463-9.5924z"/><path d="m142.258 26.2611v20.9252h7.602c6.274 0 9.907-3.8428 9.907-10.5278 0-6.5836-3.662-10.3974-9.907-10.3974zm3.269 2.9578h3.968c4.363 0 6.946 2.7553 6.946 7.4826 0 4.7999-2.539 7.5261-6.946 7.5261h-3.968zm25.741 15.502c-2.728 0-4.26-1.9866-4.26-5.4379 0-3.4223 1.532-5.4234 4.26-5.4234 2.714 0 4.261 2.0011 4.261 5.4234 0 3.4368-1.547 5.4379-4.261 5.4379zm.002 2.7692c4.64 0 7.485-3.0888 7.485-8.2077 0-5.0899-2.859-8.1931-7.485-8.1931-4.64 0-7.5 3.1032-7.5 8.1931 0 5.1189 2.846 8.2077 7.5 8.2077zm32.075-16.0962h-3.137l-2.831 12.0505h-.248l-3.269-12.0505h-3.005l-3.269 12.0505h-.233l-2.846-12.0505h-3.18l4.377 15.7918h3.225l3.268-11.6299h.248l3.283 11.6299h3.254zm3.982 15.7916h3.137v-9.2372c0-2.4652 1.546-4.0023 4.071-4.0023 2.334 0 3.472 1.2616 3.472 3.7993v9.4402h3.137v-10.2233c0-3.7558-1.999-5.8729-5.544-5.8729-2.393 0-4.246 1.0585-5.02 2.8132h-.233v-2.5087h-3.02zm19.118.0007h3.137v-21.9548h-3.137zm15.298-2.4653c-2.728 0-4.26-1.9866-4.26-5.4379 0-3.4223 1.532-5.4234 4.26-5.4234 2.714 0 4.261 2.0011 4.261 5.4234 0 3.4368-1.547 5.4379-4.261 5.4379zm-.004 2.7692c4.64 0 7.485-3.0888 7.485-8.2077 0-5.0899-2.86-8.1931-7.485-8.1931-4.64 0-7.5 3.1032-7.5 8.1931 0 5.1189 2.845 8.2077 7.5 8.2077zm17.191-2.6675c-1.707 0-2.947-.8265-2.947-2.2476 0-1.3922.992-2.1317 3.181-2.2767l3.881-.2465v1.3196c0 1.9576-1.751 3.4512-4.115 3.4512zm-.801 2.624c2.087 0 3.823-.8991 4.772-2.4797h.248v2.2186h3.02v-10.7888c0-3.3353-2.247-5.3074-6.23-5.3074-3.604 0-6.172 1.7401-6.493 4.4518h3.035c.35-1.1166 1.561-1.7546 3.312-1.7546 2.145 0 3.254.9425 3.254 2.6102v1.3631l-4.305.2465c-3.779.232-5.909 1.8707-5.909 4.7129 0 2.8857 2.232 4.7274 5.296 4.7274zm19.062.0006c2.188 0 4.041-1.0296 4.99-2.7552h.248v2.4942h3.006v-21.9548h-3.138v8.6717h-.233c-.861-1.7401-2.699-2.7697-4.873-2.7697-4.013 0-6.596 3.1613-6.596 8.1497 0 5.0029 2.554 8.1641 6.596 8.1641zm.888-13.5158c2.626 0 4.275 2.0737 4.275 5.3655 0 3.3062-1.634 5.3509-4.275 5.3509-2.656 0-4.246-2.0157-4.246-5.3654 0-3.3208 1.605-5.351 4.246-5.351zm28.427 10.7895c-2.729 0-4.261-1.9866-4.261-5.4379 0-3.4223 1.532-5.4234 4.261-5.4234 2.714 0 4.261 2.0011 4.261 5.4234 0 3.4368-1.547 5.4379-4.261 5.4379zm.002 2.7692c4.64 0 7.485-3.0888 7.485-8.2077 0-5.0899-2.86-8.1931-7.485-8.1931-4.64 0-7.5 3.1032-7.5 8.1931 0 5.1189 2.845 8.2077 7.5 8.2077zm12-.3046h3.137v-9.2372c0-2.4652 1.547-4.0023 4.071-4.0023 2.334 0 3.473 1.2616 3.473 3.7993v9.4402h3.137v-10.2233c0-3.7558-1.999-5.8729-5.545-5.8729-2.393 0-4.246 1.0585-5.019 2.8132h-.234v-2.5087h-3.02zm28.993-19.6197v3.9008h-2.612v2.6247h2.612v8.9183c0 3.0452 1.386 4.2633 4.873 4.2633.613 0 1.182-.0725 1.678-.1595v-2.5957c-.437.0435-.685.0725-1.167.0725-1.561 0-2.247-.7251-2.247-2.3782v-8.1207h3.56v-2.6247h-3.56v-3.9008zm11.169 19.6204h3.137v-9.2227c0-2.3927 1.591-4.0024 4.159-4.0024 2.364 0 3.546 1.2761 3.546 3.7993v9.4258h3.137v-10.1943c0-3.7558-2.043-5.8875-5.618-5.8875-2.393 0-4.231 1.0586-5.005 2.8277h-.248v-8.7007h-3.108zm25.665-13.4423c2.32 0 3.838 1.6097 3.91 4.0894h-8.025c.175-2.4652 1.795-4.0894 4.115-4.0894zm3.898 9.1783c-.584 1.2326-1.883 1.9142-3.78 1.9142-2.509 0-4.129-1.7547-4.231-4.5244v-.174h11.221v-1.0876c0-4.9594-2.671-7.9611-7.092-7.9611-4.479 0-7.324 3.2047-7.324 8.2511s2.786 8.1497 7.339 8.1497c3.633 0 6.172-1.7402 6.887-4.5679z"/><path d="m98.183 66.4736c-.0961-10.6217 8.751-15.7892 9.156-16.0298-5.011-7.2602-12.7771-8.2522-15.5062-8.3313-6.5228-.6822-12.8498 3.8789-16.1725 3.8789-3.389 0-8.5057-3.813-14.0204-3.7009-7.0964.1087-13.7351 4.192-17.3762 10.5327-7.5142 12.9287-1.91 31.9279 5.2892 42.3782 3.6012 5.1216 7.8093 10.8326 13.3173 10.6316 5.3886-.217 7.4015-3.414 13.9043-3.414 6.4431 0 8.3333 3.414 13.9507 3.282 5.7832-.085 9.4238-5.138 12.8998-10.3051 4.161-5.8596 5.833-11.6434 5.899-11.94-.133-.0429-11.2282-4.2513-11.341-16.9823z"/><path d="m87.575 35.2374c2.8983-3.602 4.8813-8.5026 4.3308-13.4757-4.1948.1846-9.4408 2.8837-12.4618 6.4067-2.6727 3.1044-5.0603 8.1928-4.4435 12.9781 4.7121.3493 9.5503-2.363 12.5745-5.9091z"/></g></svg>

<svg width="436" height="130" viewBox="0 0 436 130" fill="none" xmlns="http://www.w3.org/2000/svg">
<g id="badge">
<rect id="base" x="1.55859" y="1.86328" width="433.898" height="128" rx="5.09111" fill="black"/>
<path id="App Store" fill-rule="evenodd" clip-rule="evenodd" d="M168.106 102.334H175.399L159.435 58.3908H152.05L136.086 102.334H143.133L147.209 90.6704H164.062L168.106 102.334ZM155.389 66.3689H155.91L162.314 84.9449H148.955L155.389 66.3689ZM194.736 68.6236C190.201 68.6236 186.279 70.8771 184.257 74.6532H183.766V69.1718H177.423V113.084H184.011V97.3098H184.532C186.279 100.812 190.048 102.883 194.797 102.883C203.224 102.883 208.586 96.2744 208.586 85.7379C208.586 75.2014 203.224 68.6236 194.736 68.6236ZM192.864 97.0045C187.348 97.0045 183.886 92.6803 183.886 85.7676C183.886 78.8244 187.348 74.5002 192.895 74.5002C198.471 74.5002 201.811 78.7331 201.811 85.7371C201.811 92.7717 198.471 97.0045 192.864 97.0045ZM228.905 68.6236C224.37 68.6236 220.448 70.8771 218.425 74.6532H217.935V69.1718H211.592V113.084H218.18V97.3098H218.701C220.448 100.812 224.217 102.883 228.966 102.883C237.392 102.883 242.755 96.2744 242.755 85.7379C242.755 75.2014 237.392 68.6236 228.905 68.6236ZM227.033 97.0045C221.517 97.0045 218.055 92.6803 218.055 85.7676C218.055 78.8244 221.517 74.5002 227.063 74.5002C232.64 74.5002 235.98 78.7331 235.98 85.7371C235.98 92.7717 232.64 97.0045 227.033 97.0045ZM256.698 90.5184C257.189 98.3751 263.777 103.4 273.582 103.4C284.061 103.4 290.619 98.1315 290.619 89.7266C290.619 83.1184 286.88 79.4641 277.81 77.3629L272.938 76.1753C267.178 74.8353 264.849 73.0387 264.849 69.9021C264.849 65.9432 268.465 63.3548 273.888 63.3548C279.036 63.3548 282.591 65.8823 283.234 69.9325H289.914C289.516 62.5326 282.958 57.3252 273.98 57.3252C264.328 57.3252 257.893 62.5326 257.893 70.3588C257.893 76.8148 261.54 80.6518 269.537 82.5094L275.237 83.8797C281.089 85.2501 283.663 87.2599 283.663 90.6097C283.663 94.5076 279.618 97.3397 274.103 97.3397C268.189 97.3397 264.083 94.6903 263.501 90.5184H256.698ZM296.29 61.1314V69.3232H290.805V74.835H296.29V93.5633C296.29 99.9583 299.2 102.516 306.524 102.516C307.811 102.516 309.006 102.364 310.048 102.181V96.7303C309.128 96.8217 308.607 96.8826 307.596 96.8826C304.318 96.8826 302.877 95.36 302.877 91.8884V74.835H310.354V69.3232H302.877V61.1314H296.29ZM326.69 97.1575C320.96 97.1575 317.742 92.9855 317.742 85.7378C317.742 78.5511 320.96 74.3486 326.69 74.3486C332.389 74.3486 335.637 78.5511 335.637 85.7378C335.637 92.9551 332.389 97.1575 326.69 97.1575ZM326.686 102.973C336.43 102.973 342.405 96.4868 342.405 85.7371C342.405 75.0483 336.399 68.5314 326.686 68.5314C316.942 68.5314 310.936 75.0483 310.936 85.7371C310.936 96.4868 316.911 102.973 326.686 102.973ZM345.411 102.334H351.999V82.7536C351.999 78.0943 355.523 74.9577 360.487 74.9577C361.59 74.9577 363.612 75.1709 364.133 75.3536V68.8977C363.428 68.715 362.172 68.6236 361.222 68.6236C356.871 68.6236 353.194 70.9989 352.244 74.2573H351.754V69.1718H345.411V102.334ZM378.964 74.1049C383.836 74.1049 387.023 77.4851 387.176 82.6925H370.323C370.691 77.5156 374.092 74.1049 378.964 74.1049ZM387.15 93.3806C385.924 95.9691 383.197 97.4004 379.214 97.4004C373.943 97.4004 370.542 93.7156 370.328 87.8992V87.5338H393.891V85.2498C393.891 74.8351 388.284 68.5314 378.999 68.5314C369.592 68.5314 363.617 75.2614 363.617 85.8589C363.617 96.4563 369.47 102.973 379.03 102.973C386.66 102.973 391.991 99.3189 393.493 93.3806H387.15Z" fill="white"/>
<path id="Download on the" fill-rule="evenodd" clip-rule="evenodd" d="M142.258 26.2611V47.1863H149.86C156.134 47.1863 159.767 43.3435 159.767 36.6585C159.767 30.0749 156.105 26.2611 149.86 26.2611H142.258ZM145.527 29.2189H149.495C153.858 29.2189 156.441 31.9742 156.441 36.7015C156.441 41.5014 153.902 44.2276 149.495 44.2276H145.527V29.2189ZM171.268 44.7209C168.54 44.7209 167.008 42.7343 167.008 39.283C167.008 35.8607 168.54 33.8596 171.268 33.8596C173.982 33.8596 175.529 35.8607 175.529 39.283C175.529 42.7198 173.982 44.7209 171.268 44.7209ZM171.27 47.4901C175.91 47.4901 178.755 44.4013 178.755 39.2824C178.755 34.1925 175.896 31.0893 171.27 31.0893C166.63 31.0893 163.77 34.1925 163.77 39.2824C163.77 44.4013 166.616 47.4901 171.27 47.4901ZM203.345 31.3939H200.208L197.377 43.4444H197.129L193.86 31.3939H190.855L187.586 43.4444H187.353L184.507 31.3939H181.327L185.704 47.1857H188.929L192.197 35.5558H192.445L195.728 47.1857H198.982L203.345 31.3939ZM207.327 47.1855H210.464V37.9483C210.464 35.4831 212.01 33.946 214.535 33.946C216.869 33.946 218.007 35.2076 218.007 37.7453V47.1855H221.144V36.9622C221.144 33.2064 219.145 31.0893 215.6 31.0893C213.207 31.0893 211.354 32.1478 210.58 33.9025H210.347V31.3938H207.327V47.1855ZM226.445 47.1862H229.582V25.2314H226.445V47.1862ZM241.743 44.7209C239.015 44.7209 237.483 42.7343 237.483 39.283C237.483 35.8607 239.015 33.8596 241.743 33.8596C244.457 33.8596 246.004 35.8607 246.004 39.283C246.004 42.7198 244.457 44.7209 241.743 44.7209ZM241.739 47.4901C246.379 47.4901 249.224 44.4013 249.224 39.2824C249.224 34.1925 246.364 31.0893 241.739 31.0893C237.099 31.0893 234.239 34.1925 234.239 39.2824C234.239 44.4013 237.084 47.4901 241.739 47.4901ZM258.93 44.8226C257.223 44.8226 255.983 43.9961 255.983 42.575C255.983 41.1828 256.975 40.4433 259.164 40.2983L263.045 40.0518V41.3714C263.045 43.329 261.294 44.8226 258.93 44.8226ZM258.129 47.4466C260.216 47.4466 261.952 46.5475 262.901 44.9669H263.149V47.1855H266.169V36.3967C266.169 33.0614 263.922 31.0893 259.939 31.0893C256.335 31.0893 253.767 32.8294 253.446 35.5411H256.481C256.831 34.4245 258.042 33.7865 259.793 33.7865C261.938 33.7865 263.047 34.729 263.047 36.3967V37.7598L258.742 38.0063C254.963 38.2383 252.833 39.877 252.833 42.7192C252.833 45.6049 255.065 47.4466 258.129 47.4466ZM277.191 47.4472C279.379 47.4472 281.232 46.4176 282.181 44.692H282.429V47.1862H285.435V25.2314H282.297V33.9031H282.064C281.203 32.163 279.365 31.1334 277.191 31.1334C273.178 31.1334 270.595 34.2947 270.595 39.2831C270.595 44.286 273.149 47.4472 277.191 47.4472ZM278.079 33.9314C280.705 33.9314 282.354 36.0051 282.354 39.2969C282.354 42.6031 280.72 44.6478 278.079 44.6478C275.423 44.6478 273.833 42.6321 273.833 39.2824C273.833 35.9616 275.438 33.9314 278.079 33.9314ZM306.506 44.7209C303.777 44.7209 302.245 42.7343 302.245 39.283C302.245 35.8607 303.777 33.8596 306.506 33.8596C309.22 33.8596 310.767 35.8607 310.767 39.283C310.767 42.7198 309.22 44.7209 306.506 44.7209ZM306.508 47.4901C311.148 47.4901 313.993 44.4013 313.993 39.2824C313.993 34.1925 311.133 31.0893 306.508 31.0893C301.868 31.0893 299.008 34.1925 299.008 39.2824C299.008 44.4013 301.853 47.4901 306.508 47.4901ZM318.508 47.1855H321.645V37.9483C321.645 35.4831 323.192 33.946 325.716 33.946C328.05 33.946 329.189 35.2076 329.189 37.7453V47.1855H332.326V36.9622C332.326 33.2064 330.327 31.0893 326.781 31.0893C324.388 31.0893 322.535 32.1478 321.762 33.9025H321.528V31.3938H318.508V47.1855ZM347.501 27.5658V31.4666H344.889V34.0913H347.501V43.0096C347.501 46.0548 348.887 47.2729 352.374 47.2729C352.987 47.2729 353.556 47.2004 354.052 47.1134V44.5177C353.615 44.5612 353.367 44.5902 352.885 44.5902C351.324 44.5902 350.638 43.8651 350.638 42.212V34.0913H354.198V31.4666H350.638V27.5658H347.501ZM358.67 47.1862H361.807V37.9635C361.807 35.5708 363.398 33.9611 365.966 33.9611C368.33 33.9611 369.512 35.2372 369.512 37.7604V47.1862H372.649V36.9919C372.649 33.2361 370.606 31.1044 367.031 31.1044C364.638 31.1044 362.8 32.163 362.026 33.9321H361.778V25.2314H358.67V47.1862ZM384.335 33.7439C386.655 33.7439 388.173 35.3536 388.245 37.8333H380.22C380.395 35.3681 382.015 33.7439 384.335 33.7439ZM388.233 42.9222C387.649 44.1548 386.35 44.8364 384.453 44.8364C381.944 44.8364 380.324 43.0817 380.222 40.312V40.138H391.443V39.0504C391.443 34.091 388.772 31.0893 384.351 31.0893C379.872 31.0893 377.027 34.294 377.027 39.3404C377.027 44.3868 379.813 47.4901 384.366 47.4901C387.999 47.4901 390.538 45.7499 391.253 42.9222H388.233Z" fill="white"/>
<g id="logo_apple">
<path id="Fill 2" fill-rule="evenodd" clip-rule="evenodd" d="M98.183 66.4736C98.0869 55.8519 106.934 50.6844 107.339 50.4438C102.328 43.1836 94.5619 42.1916 91.8328 42.1125C85.31 41.4303 78.983 45.9914 75.6603 45.9914C72.2713 45.9914 67.1546 42.1784 61.6399 42.2905C54.5435 42.3992 47.9048 46.4825 44.2637 52.8232C36.7495 65.7519 42.3537 84.7511 49.5529 95.2014C53.1541 100.323 57.3622 106.034 62.8702 105.833C68.2588 105.616 70.2717 102.419 76.7745 102.419C83.2176 102.419 85.1078 105.833 90.7252 105.701C96.5084 105.616 100.149 100.563 103.625 95.3959C107.786 89.5363 109.458 83.7525 109.524 83.4559C109.391 83.413 98.2958 79.2046 98.183 66.4736Z" fill="white"/>
<path id="Fill 3" fill-rule="evenodd" clip-rule="evenodd" d="M87.575 35.2374C90.4733 31.6354 92.4563 26.7348 91.9058 21.7617C87.711 21.9463 82.465 24.6454 79.444 28.1684C76.7713 31.2728 74.3837 36.3612 75.0005 41.1465C79.7126 41.4958 84.5508 38.7835 87.575 35.2374Z" fill="white"/>
</g>
</g>
</svg>
